polaris-icons/icons/new-icons/TextAlignmentRightMajor.svg

<svg width="20" height="20" viewBox="0 0 20 20" fill="none" xmlns="http://www.w3.org/2000/svg">
<path d="M3.75 4C3.33579 4 3 4.33579 3 4.75C3 5.16421 3.33579 5.5 3.75 5.5H16.25C16.6642 5.5 17 5.16421 17 4.75C17 4.33579 16.6642 4 16.25 4H3.75Z" fill="#4A4A4A"/>
<path d="M8.25 7.5C7.83579 7.5 7.5 7.83579 7.5 8.25C7.5 8.66421 7.83579 9 8.25 9H16.25C16.6642 9 17 8.66421 17 8.25C17 7.83579 16.6642 7.5 16.25 7.5H8.25Z" fill="#4A4A4A"/>
<path d="M3 11.75C3 11.3358 3.33579 11 3.75 11H16.25C16.6642 11 17 11.3358 17 11.75C17 12.1642 16.6642 12.5 16.25 12.5H3.75C3.33579 12.5 3 12.1642 3 11.75Z" fill="#4A4A4A"/>
<path d="M8.25 14.5C7.83579 14.5 7.5 14.8358 7.5 15.25C7.5 15.6642 7.83579 16 8.25 16H16.25C16.6642 16 17 15.6642 17 15.25C17 14.8358 16.6642 14.5 16.25 14.5H8.25Z" fill="#4A4A4A"/>
</svg>

<svg viewBox="0 0 20 20" xmlns="http://www.w3.org/2000/svg"><path d="M3.75 4a.75.75 0 0 0 0 1.5h12.5a.75.75 0 0 0 0-1.5h-12.5Z" fill="#5C5F62"/><path d="M8.25 7.5a.75.75 0 0 0 0 1.5h8a.75.75 0 0 0 0-1.5h-8Z" fill="#5C5F62"/><path d="M3 11.75a.75.75 0 0 1 .75-.75h12.5a.75.75 0 0 1 0 1.5h-12.5a.75.75 0 0 1-.75-.75Z" fill="#5C5F62"/><path d="M8.25 14.5a.75.75 0 0 0 0 1.5h8a.75.75 0 0 0 0-1.5h-8Z" fill="#5C5F62"/></svg>
